X:1

T:Why Should We Part So Soon

M:A

L:1/8

R:Air

N:”Slow”

S:O’Farrell – Pocket Companion, vol. 1 (c. 1805).

Z:AK/Fiddler’s Companion

K:A

cB | A2F2E2 | E2F2A2 | A4B2 | c2A2F2 | A2B2c2 | d4 FE | D3ED2 | d2c2d2 |

e2 (dc)(BA) | B3A F2 | A2F2E2 | E2F2A2 | A4 :: d | c3de2 | e2c2e2 | A6 | A3Bc2 |

d2e2f2 | f2d2f2 | B6 | B4 d2 | c3d e2 | e2c2e2 | A6 | A3B c2 | d2e2f2 | f2d2f2 |

B6 | B4d2 | c3de2 | a2f2a2 | {f}e2 (dc)(BA) | B2A2F2 | A2F2E2 | E2F2A2 | A4 :|

                       

WHY SHOULD WE QUARREL FOR RICHES. English, Irish;Air (9/8 time). G Major/E Minor. Standard tuning. ABB.  O’Farrell (c. 1810) assigns an Irish provenance for this sailor’s song, although it appears earlier in Allan Ramsay’s Tea-Table Miscellany (London). The first verse and chorus go:

***

How pleasant a sailor's life passes,
Who roams o'er the watery main!
No treasure he ever amasses,
But cheerfully spends all his gain.
We're strangers to party and faction,
To honour and honesty true;
And would not commit a bad action
For power or profit in view.
Chorus:
Then why should we quarrel for riches,
Or any such glittering toys;
A light heart, and a thin pair of breeches,
Will go through the world, my brave boys!

***

 Joyce (Old Irish Folk Muisc and Songs), 1909; No. 437, pgs. 247‑248. O’Farrell (Pocket Companion, vol. IV), c. 1810; pg. 125.

